src/assets/icons/languages/c.svg

<svg viewBox="0 0 123 122" fill="none" xmlns="http://www.w3.org/2000/svg">
<g clip-path="url(#clip0_652_10840)">
<mask id="mask0_652_10840" style="mask-type:alpha" maskUnits="userSpaceOnUse" x="8" y="0" width="107" height="122">
<path d="M61.6702 0L114.37 30.4261V91.2784L61.6702 121.705L8.97065 91.2784V30.4261L61.6702 0Z" fill="black"/>
</mask>
<g mask="url(#mask0_652_10840)">
<rect width="109.333" height="123" transform="translate(6.81799 -1)" fill="#280068"/>
<path d="M115.665 34.8059C115.665 32.7581 115.227 30.9485 114.341 29.3959C113.471 27.8683 112.168 26.5883 110.42 25.5763C95.9924 17.2582 81.5511 8.9656 67.1284 0.639061C63.2401 -1.60549 59.4701 -1.52324 55.6107 0.753536C49.8681 4.13944 21.1173 20.6098 12.5499 25.5716C9.02163 27.6144 7.30477 30.7399 7.30392 34.8021C7.2984 51.5302 7.30392 68.2584 7.2984 84.9865C7.2984 86.9894 7.71861 88.7641 8.56538 90.2934C9.4359 91.8668 10.7572 93.182 12.5453 94.2169C21.1131 99.1788 49.8677 115.648 55.609 119.035C59.4701 121.313 63.2401 121.394 67.1297 119.15C81.5528 110.823 95.995 102.53 110.424 94.2119C112.213 93.1774 113.534 91.8613 114.404 90.2892C115.25 88.7595 115.671 86.9851 115.671 84.9818C115.671 84.9818 115.671 51.5345 115.665 34.8059Z" fill="#659AD2"/>
<path d="M61.6505 60.3368L8.56539 90.899C9.43591 92.4724 10.7572 93.7875 12.5453 94.8225C21.1131 99.7843 49.8677 116.253 55.609 119.641C59.4701 121.919 63.2401 122 67.1297 119.755C81.5528 111.428 95.995 103.135 110.424 94.8174C112.213 93.7829 113.534 92.4669 114.404 90.8947L61.6505 60.3368Z" fill="#004482"/>
<path d="M115.665 35.4114C115.665 33.3636 115.227 31.554 114.341 30.0014L61.6505 60.3372L114.404 90.8947C115.25 89.365 115.67 87.5906 115.671 85.5873C115.671 85.5873 115.671 52.1399 115.665 35.4114Z" fill="#00599C"/>
<path d="M61.767 20.2219C76.6689 20.2219 89.6792 28.314 96.648 40.3423L96.5801 40.2266L79.0468 50.3207C75.5927 44.4727 69.2604 40.5259 61.9956 40.4445L61.7666 40.4432C50.689 40.4432 41.7082 49.4231 41.7082 60.4996C41.7046 63.9908 42.6168 67.4219 44.3537 70.4504C47.8112 76.4858 54.311 80.5564 61.767 80.5564C69.2693 80.5564 75.806 76.434 79.2457 70.3342L79.1621 70.4805L96.6688 80.6213C89.7763 92.5478 76.9441 100.615 62.2157 100.776L61.767 100.778C46.8181 100.778 33.771 92.636 26.8195 80.5441C23.4261 74.641 21.4845 67.7976 21.4845 60.4996C21.4845 38.2551 39.519 20.2215 61.7666 20.2215L61.767 20.2219Z" fill="white"/>
</g>
</g>
<defs>
<clipPath id="clip0_652_10840">
<rect width="121.705" height="121.705" fill="white" transform="translate(0.817993)"/>
</clipPath>
</defs>
</svg>

<svg xmlns="http://www.w3.org/2000/svg" fill="none" viewBox="0 0 123 122"><g clip-path="url(#a)"><mask id="b" width="107" height="122" x="8" y="0" maskUnits="userSpaceOnUse" style="mask-type:alpha"><path fill="#000" d="m61.67 0 52.7 30.426v60.852l-52.7 30.427-52.7-30.427V30.426L61.67 0Z"/></mask><g mask="url(#b)"><path fill="#280068" d="M6.818-1h109.333v123H6.818z"/><path fill="#659AD2" d="M115.665 34.806c0-2.048-.438-3.857-1.324-5.41-.87-1.528-2.173-2.808-3.921-3.82C95.992 17.258 81.551 8.966 67.128.64 63.24-1.605 59.47-1.523 55.611.754 49.868 4.139 21.117 20.61 12.55 25.572c-3.528 2.042-5.245 5.168-5.246 9.23-.006 16.728 0 33.456-.006 50.185 0 2.002.42 3.777 1.267 5.306.87 1.574 2.192 2.889 3.98 3.924 8.568 4.962 37.323 21.431 43.064 24.818 3.861 2.278 7.631 2.359 11.52.115 14.424-8.327 28.866-16.62 43.295-24.938 1.789-1.035 3.11-2.35 3.98-3.923.846-1.53 1.267-3.304 1.267-5.307 0 0 0-33.447-.006-50.176Z"/><path fill="#004482" d="M61.65 60.337 8.566 90.899c.87 1.573 2.192 2.888 3.98 3.924 8.568 4.961 37.323 21.43 43.064 24.818 3.861 2.278 7.631 2.359 11.52.114 14.424-8.327 28.866-16.62 43.295-24.938 1.789-1.034 3.11-2.35 3.98-3.922L61.651 60.337Z"/><path fill="#00599C" d="M115.665 35.411c0-2.047-.438-3.857-1.324-5.41l-52.69 30.336 52.753 30.558c.846-1.53 1.266-3.304 1.267-5.308 0 0 0-33.447-.006-50.176Z"/><path fill="#fff" d="M61.767 20.222c14.902 0 27.912 8.092 34.881 20.12l-.068-.115L79.047 50.32c-3.454-5.848-9.787-9.795-17.051-9.877h-.23c-11.077 0-20.058 8.98-20.058 20.056a19.96 19.96 0 0 0 2.646 9.95c3.457 6.036 9.957 10.106 17.413 10.106 7.502 0 14.039-4.122 17.479-10.222l-.084.147L96.67 80.62c-6.893 11.927-19.725 19.994-34.453 20.155l-.449.002c-14.949 0-27.996-8.142-34.948-20.234A40.092 40.092 0 0 1 21.485 60.5c0-22.245 18.034-40.279 40.282-40.279Z"/></g></g><defs><clipPath id="a"><path fill="#fff" d="M.818 0h121.705v121.705H.818z"/></clipPath></defs></svg>
